X:1462
T:Es steht ein Lind in jenem Tal
C:anon.
O:Germany
N:1550
Z:Transcribed by Frank Nordberg - http://www.musicaviva.com
F:http://abc.musicaviva.com/tunes/germany/es-steht-ein-lind.abc
M:C
L:1/4
K:C
G|cccd|B>AGc|B>GAA|G3G|
w:Es steht ein Lind in je-nem Tal, ach Gott was tut sie da? Sie
ccgf|e2d2|(c/d/e/d/cB/A/|B>A)GG|
w:will mir hel-fen trau-ern, trau---------ern, da\ss
ABcd|e>dcG|ABcd|e3d|c2 z|]
w:ich mein Lieb ver-lo-ren hab, da\ss ich mein Lieb ver-lo-ren hab.
W:
W:Es steht ein Lind in jenem Tal,
W:ach Gott, was tut sie da?
W:Sie will mir helfen trauern,
W:da\ss ich mein Lieb verloren hab.
W:
W:Ich kam wohl in ein G\"artelein,
W:darinnen ich entschief,
W:mir tr\"aumte also s\"u\sse,
W:wie mir mein Lieb entgegenlief.
W:
W:Und da ich aufgewachet,
W:da war das alles nichts;
W:denn nur die lichten R\"oslein,
W:die fielen herab auf mich.
W:
W:
W:  From Musica Viva - http://www.musicaviva.com
W:  the Internet center for free sheet music downloads.


